X:52
T:Follow Me Down to Limerick (sj)
B:NFID.099a
052foll_me
S:SD
L:1/8
M:9/8
R:slip jig
Q:280
K:G
cAG GDG G2=F|DGG GFG B/c/dd|cAG GDG G2=F-|1 =FGA =fed cAd:|\
[2 =FGA =f2d cA^F||
%B
GBd gaf g2f|def gbg afd|cde =fge f2d|cde =f2d cAF|
GBd gaf g2f|def gbg afd|ba^g a=gf g2d|^cde =f2d =cAG||
%C
BGB AFA G2A|B2B GBd cBA|=f2f ece d2=F-|1 FGA =f2d cA^G:|\
[2 FGA =f2d cAd||

%%%

